src/basic/500/u25A1-square.svg

<svg width="23" height="28" viewBox="0 0 23 28" fill="none" xmlns="http://www.w3.org/2000/svg">
<path fill-rule="evenodd" clip-rule="evenodd" d="M0.997,3.97406h0.5h20.0045h0.5v0.5v19.04914v0.5h-0.5h-20.0045h-0.5v-0.5v-19.04914zM1.997,4.97406v18.04914h19.0045v-18.04914z" fill="black"/>
</svg>

<svg width="23" height="28" viewBox="0 0 23 28" fill="none" xmlns="http://www.w3.org/2000/svg">
<path fill-rule="evenodd" clip-rule="evenodd" d="M0.997002 3.97406H1.497H21.5015H22.0015V4.47406V23.5232V24.0232H21.5015H1.497H0.997002V23.5232V4.47406V3.97406ZM1.997 4.97406V23.0232H21.0015V4.97406H1.997Z" fill="black"/>
</svg>
